X:1
T: I Often for My Jenny Strove
N:
C:
S:
A:
O:
R:
M:6/8
K:G
I:speed 165
%W: A1
% voice 1 (1 lines, 37 notes)
K:G
M:6/8
L:1/16
g2 |d2 B2 c2 A4 G2 A2 B2 c2 D6 E2 G4 B2 d4 e2 f2 g2 f6 |d2 B2 c2 A4 G2 A2 B2 c2 D6 E2 F2 G2 B2 c2 d2 A4 G2 G4 g2 |
%W: A2
% voice 1 (1 lines, 36 notes)
d2 B2 c2 A4 G2 A2 B2 c2 D6 E2 G4 B2 d4 e2 f2 g2 f6 |d2 B2 c2 A4 G2 A2 B2 c2 D6 E2 F2 G2 B2 c2 d2 A4 G2 G4 z2 |
%W: B1
% voice 1 (1 lines, 42 notes)
g2 a2 b2 e2 f2 g2 a2 f2 g2 e4 d2 B2 ^c2 ^d2 e2 f2 g2 e4 d2 d6 |d B c B A G B4 d2 F4 D2 F4 A2 B2 c2 d2 e2 f2 g2 A4 G2 G4 z2 |
%W: B2
% voice 1 (1 lines, 41 notes)
g2 a2 b2 e2 f2 g2 a2 f2 g2 e4 d2 B2 ^c2 ^d2 e2 f2 g2 e4 d2 d6 |d B c B A G B4 d2 F4 D2 F4 A2 B2 c2 d2 e2 f2 g2 A4 G2 G4 ||
